X: 18198
T: Humours Of Glendart, The
R: jig
M: 6/8
K: Dmajor
|:BAF ADD|FED ADD|BAF ADD|FEE EFA|
BAF ADD|FED ADD|dfe dcB|AFE EFA:|
|:dfe dcB|ABA AFA|dfe d2 f|ede fdB|
dfe dcB|ABA ABd|efg fdB|AFE EFA:|

